svgs/thin/unlock-keyhole.svg

<svg xmlns="http://www.w3.org/2000/svg" viewBox="0 0 448 512"><!--! Font Awesome Pro 6.4.0 by @fontawesome - https://fontawesome.com License - https://fontawesome.com/license (Commercial License) Copyright 2023 Fonticons, Inc. --><path d="M224 16c-61.9 0-112 50.1-112 112v64H384c35.3 0 64 28.7 64 64V448c0 35.3-28.7 64-64 64H64c-35.3 0-64-28.7-64-64V256c0-35.3 28.7-64 64-64H96V128C96 57.3 153.3 0 224 0c58.9 0 108.5 39.8 123.4 93.9c1.2 4.3-1.3 8.7-5.6 9.8s-8.7-1.3-9.8-5.6C318.9 50.8 275.5 16 224 16zM64 208c-26.5 0-48 21.5-48 48V448c0 26.5 21.5 48 48 48H384c26.5 0 48-21.5 48-48V256c0-26.5-21.5-48-48-48H112 96 64zM272 352c0-8.8-7.2-16-16-16H192c-8.8 0-16 7.2-16 16s7.2 16 16 16h64c8.8 0 16-7.2 16-16zm-16-32c17.7 0 32 14.3 32 32s-14.3 32-32 32H192c-17.7 0-32-14.3-32-32s14.3-32 32-32h64z"/></svg>

<svg xmlns="http://www.w3.org/2000/svg" viewBox="0 0 448 512"><!--! Font Awesome Pro 6.3.0 by @fontawesome - https://fontawesome.com License - https://fontawesome.com/license (Commercial License) Copyright 2023 Fonticons, Inc. --><path d="M256 320C273.7 320 288 334.3 288 352C288 369.7 273.7 384 256 384H192C174.3 384 160 369.7 160 352C160 334.3 174.3 320 192 320H256zM256 336H192C183.2 336 176 343.2 176 352C176 360.8 183.2 368 192 368H256C264.8 368 272 360.8 272 352C272 343.2 264.8 336 256 336zM224 16C162.1 16 112 66.14 112 128V192H384C419.3 192 448 220.7 448 256V448C448 483.3 419.3 512 384 512H64C28.65 512 0 483.3 0 448V256C0 220.7 28.65 192 64 192H96V128C96 57.31 153.3 0 224 0C282.9 0 332.5 39.75 347.4 93.87C348.6 98.13 346.1 102.5 341.8 103.7C337.6 104.9 333.1 102.4 331.1 98.13C318.9 50.77 275.5 16 224 16zM16 256V448C16 474.5 37.49 496 64 496H384C410.5 496 432 474.5 432 448V256C432 229.5 410.5 208 384 208H64C37.49 208 16 229.5 16 256z"/></svg>
